docs/public/static/images/examples/tailwindcss.svg

<svg width="50" height="50" viewBox="0 0 50 50" fill="none" xmlns="http://www.w3.org/2000/svg">
<path fill-rule="evenodd" clip-rule="evenodd" d="M25.5 12C19.5 12 15.75 15 14.25 21C16.5 18 19.125 16.875 22.125 17.625C23.8367 18.0525 25.06 19.295 26.4142 20.6691C28.62 22.9083 31.1733 25.5 36.75 25.5C42.75 25.5 46.5 22.5 48 16.5C45.75 19.5 43.125 20.625 40.125 19.875C38.4133 19.4475 37.19 18.205 35.8358 16.8308C33.63 14.5917 31.0767 12 25.5 12ZM14.25 25.5C8.25 25.5 4.5 28.4999 3 34.4999C5.25 31.4999 7.875 30.3749 10.875 31.1249C12.5867 31.5533 13.81 32.7949 15.1642 34.1691C17.37 36.4083 19.9233 38.9999 25.5 38.9999C31.5 38.9999 35.25 35.9999 36.75 29.9999C34.5 32.9999 31.875 34.1249 28.875 33.3749C27.1633 32.9474 25.94 31.7049 24.5858 30.3308C22.38 28.0916 19.8267 25.5 14.25 25.5Z" fill="#38BDF8"/>
</svg>

<svg width="50" height="50" fill="none" xmlns="http://www.w3.org/2000/svg"><path fill-rule="evenodd" clip-rule="evenodd" d="M25.5 12c-6 0-9.75 3-11.25 9 2.25-3 4.88-4.13 7.88-3.38 1.7.43 2.93 1.68 4.28 3.05 2.21 2.24 4.76 4.83 10.34 4.83 6 0 9.75-3 11.25-9-2.25 3-4.88 4.13-7.88 3.38-1.7-.43-2.93-1.68-4.28-3.05C33.63 14.6 31.08 12 25.5 12ZM14.25 25.5c-6 0-9.75 3-11.25 9 2.25-3 4.88-4.13 7.88-3.38 1.7.43 2.93 1.67 4.28 3.05C17.37 36.4 19.92 39 25.5 39c6 0 9.75-3 11.25-9-2.25 3-4.88 4.12-7.88 3.37-1.7-.42-2.93-1.67-4.28-3.04-2.21-2.24-4.76-4.83-10.34-4.83Z" fill="#38BDF8"/></svg>
